X: 02125
T: SUNNY MORNING
C: Bob McQuillen Oct'74
B: Bob's Note Book 1&2 #125
%R: reel, march
Z: 2019 John Chambers <jc:trillian.mit.edu>
M: C
L: 1/8
K: D
AB \
| d2d2 edef | d2d2 e2A2 | d2d2 edef | gfed e2a2 |\
| d2d2 edef | d2d2 e2A2 | a2a2 b2ag | f2e2 d2  :|
|: ag \
| f2d2 f2d2 | edcB A2ag | f2a2 bagf | g2e2 e2ag |\
| f2d2 e2c2 | defg a2b2 | a2gf e2a2 | d4-  d2  :|
%%begintext align
%%endtext

%%sep 1 1 500

%%sep 1 1 500

